X:4602
T: The Gardeners' Fantasia
C: Pamela Cook
%
P: Mary and Lloyd Augustus
C: Bobby Frew
R: strathspey
B: RSCDS 46-2 p.5
Z: 2010 John Chambers <jc:trillian.mit.edu>
M: C
L: 1/8
K: D
|: A,2 \
| "D"D2 D>E "A/D"F>E D>E | "D"F<A d>e "D"f>e "F#/D"d>c \
| "G"B>c d>B "F#/D"A<d "Bm"F>D | "Em"(3EFG (3FED "A7"(3CDE (3A,B,C |
| "D"D2 D>E "A/D"F>E D>E | "F#/D"F<A d>e "Bm"f>e d>c \
| "G"B>c d>B "F#/D"A<d "Bm"F>D | "Em"(3EFG "A7"F>E "D"D2"A7"A2 ||
| "D"f2 f>e "F#/D"d>A A<d | "G"B>c d>B "F#m"B>A F<A \
| "Bm"f2 f>e "G"d>B "F#m"A>B | "Bm"d>B "F#m"A<F "A7"E2A,2 |
| "D"D2 D>E "F#/D"F>A d>e | "Bm"f2 e>d "G"B<d "B7"A>F \
| "Em"G>A B>G "F#/D"A<d "Bm"F>D | "Em"(3EFG "C#/A7"F>E "D"D2 |]
